Adwaita++-Light/panel/16/transmission-panel.svg

<svg height="16" width="16" xmlns="http://www.w3.org/2000/svg">
  <g fill="#444">
    <path d="m6 1c-.554 0-1 .446-1 1s.446 1 1 1h4c.554 0 1-.446 1-1s-.446-1-1-1zm-1.1425781 5c-.4748571 0-.8574219.3825652-.8574219.8574219v6.2851561c0 .474857.3825648.857422.8574219.857422h6.2851561c.474857 0 .857422-.382565.857422-.857422v-6.2851561c0-.4748567-.382565-.8574219-.857422-.8574219h-2.142578v2l1.181641 1h-1.181641v.636719 1.363281h1.181641l-2.181641 1.908203-2.1816406-1.908203h1.1816406v-1.363281-.636719h-1.1816406l1.1816406-1v-2z"/>
    <path d="m7-10h2v8h-2z" opacity=".3" transform="scale(1 -1)"/>
  </g>
</svg>

<svg xmlns="http://www.w3.org/2000/svg" width="16" height="16" version="1.1">
 <defs>
  <style id="current-color-scheme" type="text/css">
   .ColorScheme-Text { color:#444444; } .ColorScheme-Highlight { color:#4285f4; }
  </style>
 </defs>
 <path style="fill:currentColor" class="ColorScheme-Text" d="M 6,1 C 5.446,1 5,1.446 5,2 5,2.554 5.446,3 6,3 h 4 C 10.554,3 11,2.554 11,2 11,1.446 10.554,1 10,1 Z M 4.8574219,6 C 4.3825648,6 4,6.3825652 4,6.8574219 V 13.142578 C 4,13.617435 4.3825648,14 4.8574219,14 H 11.142578 C 11.617435,14 12,13.617435 12,13.142578 V 6.8574219 C 12,6.3825652 11.617435,6 11.142578,6 H 9 v 2 l 1.181641,1 H 9 V 9.636719 11 h 1.181641 L 8,12.908203 5.8183594,11 H 7 V 9.636719 9 H 5.8183594 L 7,8 V 6 Z"/>
 <rect width="2" height="8" x="7" y="-10" transform="scale(1,-1)" style="opacity:0.3;fill:currentColor" class="ColorScheme-Text"/>
</svg>
